X: 3
T:Festa na eira
M:3/4
L:1/8
Q:270
C:E. Otero
R:Foliada
B:Leccións de Gaita. OTERO COVELO
K:C
GAGF |: E2F2G2 | A2G2E2 | F3ED2-| D2 ABAG |
F2G2A2 | B2A2F2 | G3FE2- | E2 GAGF | E2F2G2 |A2G2E2 |
F3GA2- | A2 BcBA | G2F2G2 | A2G3F | E6- |1 E2 GAGF :|2 E4 E2 |
F4E2 | D2E2F2 | G2 A3F| G4 E2- | E2 G4 
|: A4G2 | E2F2G2 | A2 B3G | A4 F2- | F2 F4 | G4 F2 | D2E2F2 |1
G2A3F | G4 E2- | E2 G4 :|2 A2G3F | E6- | E2 ||

